dist/media/images/catcher.svg

<svg width="67" height="68" viewBox="0 0 67 68" fill="none" xmlns="http://www.w3.org/2000/svg">
<g clip-path="url(#clip0_365_135)">
<path d="M62.3506 28.959C66.7801 29.2064 66.8048 29.2064 66.8048 33.6606C66.8296 43.9795 66.8295 54.2737 66.8543 64.5926C66.8543 66.1021 66.9285 67.2899 64.7509 67.1909C62.8702 67.1167 61.6577 66.8692 62.0536 64.5926C62.3506 62.8604 61.5092 62.1676 59.8513 62.4398C57.6242 62.7862 57.055 61.6479 57.3025 59.7178C57.5747 57.7876 56.3621 57.7134 54.9022 57.6886C53.3679 57.6639 52.3039 57.9361 52.5761 59.792C52.8978 61.8459 52.1059 62.7615 49.9778 62.4398C48.2951 62.1923 47.5032 62.9099 47.7507 64.6174C48.0229 66.5228 47.2805 67.1414 45.3009 67.1662C38.2979 67.1909 38.2236 67.2652 38.2731 60.3116C38.2979 58.134 37.5555 57.6886 35.5511 57.6886C28.7708 57.6886 28.6966 57.6391 28.746 64.4689C28.7708 66.4486 28.3501 67.4631 26.1725 67.1662C25.1579 67.0177 24.1186 67.0672 23.104 67.1414C20.679 67.3394 18.5756 67.3394 19.1448 63.8255C19.3922 62.2913 17.9817 62.3903 16.9919 62.4893C15.0865 62.6872 14.1709 61.9944 14.4926 60.0147C14.7895 58.0845 13.7997 57.6886 12.0675 57.7134C10.3848 57.7381 9.34549 58.0351 9.66718 60.0147C9.98887 61.9696 9.14752 62.7615 7.19262 62.4893C5.28721 62.2171 4.66857 63.1821 4.91602 64.8896C5.18822 66.8445 4.17365 67.1414 2.46621 67.1909C0.560795 67.2404 0.115374 66.4981 0.14012 64.7411C0.214356 53.6798 0.214356 42.6433 0.14012 31.582C0.115374 29.6518 0.684523 28.7857 2.66417 29.0827C4.64382 29.3796 4.96551 28.2908 4.91602 26.6329C4.81704 23.5644 4.96551 20.496 4.86653 17.4522C4.79229 15.6458 5.21297 14.557 7.26686 14.8787C9.27125 15.2004 9.96413 14.2353 9.66718 12.3794C9.37023 10.4987 10.2858 9.8306 12.0428 10.0781C14.0224 10.375 14.7648 9.48416 14.4926 7.57874C14.2451 5.8713 15.0122 5.22791 16.6949 5.37638C17.8827 5.47537 19.12 5.30215 20.3078 5.42588C22.7824 5.67333 24.564 5.30215 23.9949 2.10996C23.7227 0.575735 24.9105 0.600481 25.9993 0.600481C31.0226 0.600481 36.0213 0.649972 41.0446 0.575735C42.7026 0.55099 43.247 1.21912 43.0243 2.70386C42.6531 5.05469 43.7914 5.64859 45.87 5.40113C46.7856 5.30215 47.7259 5.45062 48.6415 5.37638C51.0418 5.20317 53.2689 5.12893 52.6008 8.66755C52.4276 9.53365 52.9473 10.2018 53.8876 10.0286C57.8469 9.33568 57.4757 11.8845 57.2282 14.3838C56.4116 15.6458 55.1249 15.2251 53.9866 15.2499C52.3534 15.2994 50.6954 15.1756 49.3097 16.2645C48.493 18.3183 47.8744 20.4465 45.1276 20.8919C44.2121 21.0404 44.311 22.2281 44.2863 23.0695C44.2368 25.0244 44.3358 26.9546 44.2615 28.9095C44.1626 31.0128 44.311 32.7945 46.9341 33.2399C47.6764 33.3637 48.2703 34.0566 48.3941 34.7989C48.8147 37.6199 50.9429 37.1498 52.8483 37.2735C54.8774 37.3972 56.2879 36.8033 56.7828 34.6752C56.8571 34.3288 57.1045 34.0071 57.352 33.7349C60.2472 33.4379 60.7669 30.6417 62.3506 28.959Z" fill="#FF5520" stroke="#D0D0D0" stroke-width="0.75" stroke-miterlimit="10"/>
<path d="M57.6489 34.0566C57.055 38.585 57.055 38.585 52.3781 38.585C51.5367 38.585 50.7201 38.5355 49.8788 38.585C48.3445 38.684 47.5527 38.0901 47.7754 36.5064C48.0723 34.3783 47.0825 33.6359 45.0781 33.8834C43.3954 34.0813 43.0737 33.1162 43.0985 31.681C43.1479 28.3403 43.1232 25.0244 43.1232 21.6838C43.1232 20.6197 43.1232 19.4319 44.6079 19.6051C48.4683 20.0753 47.9238 17.6007 47.6269 15.2499C50.5964 14.0374 53.6648 14.953 56.6838 14.7797C56.956 14.755 57.3024 14.953 57.3519 15.2004C57.8468 17.7987 60.5689 18.1451 61.9794 19.8278C62.1278 21.3621 62.2268 22.8716 61.8804 24.381C60.5689 26.0885 58.6634 25.4451 56.956 25.5936C55.6197 25.7173 54.1102 25.3461 53.8133 27.4247C53.3431 30.6417 53.838 32.1512 55.8919 32.8688C56.5848 33.1162 57.3024 33.2647 57.6489 34.0566Z" fill="#FDFDFC"/>
<path d="M57.649 34.0566C52.5762 33.5369 52.5514 33.5369 52.5762 28.2908C52.6009 23.8366 52.007 24.4058 56.585 24.3563C58.3419 24.3315 60.0741 24.381 61.831 24.4058C62.0042 25.9153 62.1775 27.4495 62.3507 28.959C62.3012 29.1322 62.227 29.3054 62.227 29.4786C61.8558 33.7596 61.8805 33.7596 57.649 34.0566Z" fill="#FF5520"/>
<path d="M61.9547 19.8526C61.237 19.7783 60.4947 19.5556 59.777 19.6299C57.8716 19.8278 57.0055 19.0855 57.253 17.1306C57.451 15.4726 56.7086 14.755 55.0506 14.8787C52.5761 15.0767 50.0768 14.5075 47.627 15.2499C48.8395 13.7157 50.5222 14.557 52.0069 14.4333C53.7391 14.2848 55.4961 14.3591 57.2283 14.3591C57.4757 14.4828 57.6984 14.656 57.9706 14.7055C62.2764 15.3984 62.2764 15.3736 61.9547 19.8526Z" fill="#FF5520"/>
<path d="M29.1418 34.0565C28.1025 38.6097 28.1025 38.5355 23.0296 38.6345C20.6293 38.6839 18.7734 38.6097 19.194 35.368C19.4167 33.6358 17.8578 33.8585 16.8185 33.9328C15.111 34.0565 14.5171 33.3636 14.5666 31.6809C14.6656 28.4393 14.6408 25.1728 14.5666 21.9312C14.5171 20.3227 14.9625 19.4071 16.7442 19.6298C18.6744 19.8773 19.5157 19.0607 19.2683 17.1058C19.0456 15.3488 19.9611 14.8292 21.5696 14.9282C22.7821 15.0024 23.9947 15.0271 25.1825 14.9034C27.558 14.656 29.2655 15.0271 28.7953 18.0461C28.6716 18.838 29.018 19.3824 29.9831 19.6051C33.8187 20.4959 33.8187 20.5454 33.4722 24.381C32.2845 26.0637 30.478 25.4698 28.8696 25.643C27.5086 25.7915 25.7764 25.1481 25.3804 27.3999C24.836 30.5921 25.4052 32.1511 27.657 32.9677C28.2262 33.1657 28.8448 33.3884 29.1418 34.0565Z" fill="#FDFDFB"/>
<path d="M29.1418 34.0565C24.0195 33.5121 23.9948 33.5121 23.9948 28.0928C23.9948 23.8861 23.5493 24.4057 27.6324 24.381C29.5625 24.3562 31.5174 24.381 33.4476 24.381C33.4971 26.6081 33.4476 28.8352 33.6703 31.0376C33.893 33.3142 33.1754 34.3535 30.7998 33.9823C30.2554 33.8586 29.6862 34.007 29.1418 34.0565Z" fill="#FF5520"/>
</g>
<defs>
<clipPath id="clip0_365_135">
<rect width="66.9121" height="66.8626" fill="white" transform="translate(0.065918 0.427246)"/>
</clipPath>
</defs>
</svg>

<svg width="67" height="68" fill="none" xmlns="http://www.w3.org/2000/svg"><g clip-path="url(#clip0_365_135)"><path d="M62.35 28.959c4.43.247 4.455.247 4.455 4.702.025 10.319.024 20.613.05 30.932 0 1.51.073 2.697-2.104 2.598-1.88-.074-3.093-.322-2.697-2.598.297-1.733-.545-2.425-2.203-2.153-2.227.346-2.796-.792-2.548-2.722.272-1.93-.94-2.005-2.4-2.03-1.535-.024-2.6.248-2.327 2.104.322 2.054-.47 2.97-2.598 2.648-1.683-.248-2.475.47-2.227 2.177.272 1.906-.47 2.524-2.45 2.55-7.003.024-7.077.098-7.028-6.855.025-2.178-.718-2.623-2.722-2.623-6.78 0-6.854-.05-6.805 6.78.025 1.98-.396 2.994-2.573 2.697-1.015-.148-2.054-.099-3.069-.025-2.425.198-4.528.198-3.96-3.316.248-1.534-1.162-1.435-2.152-1.336-1.906.198-2.821-.495-2.5-2.474.297-1.93-.692-2.326-2.425-2.302-1.682.025-2.722.322-2.4 2.302.322 1.955-.52 2.746-2.474 2.474-1.906-.272-2.524.693-2.277 2.4.272 1.956-.742 2.252-2.45 2.302-1.905.05-2.35-.693-2.326-2.45.074-11.061.074-22.098 0-33.159-.025-1.93.545-2.796 2.524-2.5 1.98.298 2.302-.791 2.252-2.45-.099-3.068.05-6.136-.05-9.18-.074-1.806.347-2.895 2.4-2.573 2.005.321 2.698-.644 2.401-2.5-.297-1.88.619-2.548 2.376-2.3 1.98.296 2.722-.595 2.45-2.5-.248-1.708.52-2.351 2.202-2.203 1.188.1 2.425-.074 3.613.05 2.474.247 4.256-.124 3.687-3.316C23.723.576 24.91.6 25.999.6c5.024 0 10.022.05 15.046-.024 1.658-.025 2.202.643 1.98 2.128-.372 2.35.766 2.945 2.845 2.697.916-.099 1.856.05 2.772-.025 2.4-.173 4.627-.247 3.959 3.292-.173.866.346 1.534 1.287 1.36 3.959-.692 3.588 1.856 3.34 4.356-.816 1.262-2.103.841-3.241.866-1.634.05-3.292-.074-4.677 1.015-.817 2.053-1.436 4.181-4.182 4.627-.916.148-.817 1.336-.842 2.178-.05 1.954.05 3.885-.025 5.84-.098 2.103.05 3.884 2.673 4.33.742.124 1.336.817 1.46 1.559.42 2.82 2.549 2.35 4.454 2.474 2.03.124 3.44-.47 3.935-2.598.074-.346.322-.668.569-.94 2.895-.297 3.415-3.093 4.999-4.776z" fill="#FF5520" stroke="#D0D0D0" stroke-width=".75" stroke-miterlimit="10"/><path d="M57.649 34.057c-.594 4.528-.594 4.528-5.27 4.528-.842 0-1.659-.05-2.5 0-1.535.099-2.326-.495-2.104-2.079.297-2.128-.692-2.87-2.697-2.623-1.683.198-2.004-.767-1.98-2.202.05-3.34.025-6.657.025-9.997 0-1.064 0-2.252 1.485-2.079 3.86.47 3.316-2.004 3.019-4.355 2.97-1.213 6.038-.297 9.057-.47.272-.025.618.173.668.42.495 2.599 3.217 2.945 4.627 4.628.149 1.534.248 3.044-.099 4.553-1.311 1.707-3.217 1.064-4.924 1.213-1.336.123-2.846-.248-3.143 1.83-.47 3.218.025 4.727 2.079 5.445.693.247 1.41.396 1.757 1.188z" fill="#FDFDFC"/><path d="M57.649 34.057c-5.073-.52-5.098-.52-5.073-5.766.025-4.454-.569-3.885 4.009-3.935 1.757-.025 3.49.025 5.246.05.173 1.51.346 3.044.52 4.553-.05.173-.124.346-.124.52-.371 4.28-.346 4.28-4.578 4.578zm4.306-14.204c-.718-.075-1.46-.297-2.178-.223-1.905.198-2.772-.544-2.524-2.5.198-1.657-.544-2.375-2.202-2.251-2.475.198-4.974-.371-7.424.37 1.212-1.533 2.895-.692 4.38-.816 1.732-.148 3.49-.074 5.221-.074.248.124.47.297.743.347 4.305.692 4.305.668 3.984 5.147z" fill="#FF5520"/><path d="M29.142 34.056c-1.04 4.554-1.04 4.48-6.112 4.579-2.4.049-4.257-.025-3.836-3.267.223-1.732-1.336-1.51-2.375-1.435-1.708.123-2.302-.57-2.252-2.252.099-3.242.074-6.508 0-9.75-.05-1.608.396-2.524 2.177-2.301 1.93.247 2.772-.57 2.524-2.524-.222-1.757.693-2.277 2.302-2.178 1.212.074 2.425.1 3.613-.025 2.375-.247 4.082.124 3.612 3.143-.123.792.223 1.336 1.188 1.56 3.836.89 3.836.94 3.49 4.775-1.188 1.683-2.995 1.089-4.603 1.262-1.361.148-3.094-.495-3.49 1.757-.544 3.192.025 4.751 2.277 5.568.57.198 1.188.42 1.485 1.088z" fill="#FDFDFB"/><path d="M29.142 34.056c-5.122-.544-5.147-.544-5.147-5.963 0-4.207-.446-3.687 3.637-3.712 1.93-.025 3.885 0 5.816 0 .05 2.227 0 4.454.222 6.657.223 2.276-.495 3.315-2.87 2.944-.545-.123-1.114.025-1.658.075z" fill="#FF5520"/></g><defs><clipPath id="clip0_365_135"><path fill="#fff" transform="translate(.066 .427)" d="M0 0h66.912v66.863H0z"/></clipPath></defs></svg>
